libs/icons/src/svg/unlock.svg

<svg width="16" height="16" viewBox="0 0 16 16" fill="none" xmlns="http://www.w3.org/2000/svg">
<g clip-path="url(#clip0_3_3339)">
<path fill-rule="evenodd" clip-rule="evenodd" d="M1.33334 7.33333C1.33334 6.96514 1.63182 6.66666 2.00001 6.66666H14C14.3682 6.66666 14.6667 6.96514 14.6667 7.33333V15.3333C14.6667 15.7015 14.3682 16 14 16H2.00001C1.63182 16 1.33334 15.7015 1.33334 15.3333V7.33333ZM2.66668 8V14.6667H13.3333V8H2.66668Z" fill="#202327"/>
<path fill-rule="evenodd" clip-rule="evenodd" d="M8 10.6667C7.63181 10.6667 7.33333 10.9651 7.33333 11.3333C7.33333 11.7015 7.63181 12 8 12C8.36819 12 8.66667 11.7015 8.66667 11.3333C8.66667 10.9651 8.36819 10.6667 8 10.6667ZM6 11.3333C6 10.2288 6.89543 9.33333 8 9.33333C9.10457 9.33333 10 10.2288 10 11.3333C10 12.4379 9.10457 13.3333 8 13.3333C6.89543 13.3333 6 12.4379 6 11.3333Z" fill="#202327"/>
<path fill-rule="evenodd" clip-rule="evenodd" d="M8.00317 -3.74755e-07H8.0735C9.12544 0.0107841 10.13 0.438962 10.8664 1.19031C11.6027 1.94166 12.0104 2.95469 12 4.00663C11.9963 4.3748 11.6949 4.6703 11.3267 4.66663C10.9585 4.66297 10.663 4.36154 10.6667 3.99337C10.6736 3.29496 10.4029 2.62238 9.91407 2.12355C9.42596 1.62548 8.76029 1.34133 8.06306 1.33333H7.99337C7.29496 1.32638 6.62239 1.59707 6.12355 2.08593C5.62548 2.57404 5.34133 3.23971 5.33333 3.93694V7.33333C5.33333 7.70152 5.03486 8 4.66667 8C4.29848 8 4 7.70152 4 7.33333V3.9265C4.01078 2.87456 4.43896 1.86997 5.19031 1.13365C5.94083 0.398137 6.95247 -0.00953795 8.00317 -3.74755e-07Z" fill="#202327"/>
</g>
<defs>
<clipPath id="clip0_3_3339">
<rect width="16" height="16" fill="white"/>
</clipPath>
</defs>
</svg>

<svg xmlns="http://www.w3.org/2000/svg" viewBox="0 0 16 16" class="sageicon"><path fill-rule="evenodd" d="M1.333 7.333c0-.368.299-.666.667-.666h12c.368 0 .666.298.666.666v8A.667.667 0 0 1 14 16H2a.667.667 0 0 1-.667-.667v-8ZM2.667 8v6.667h10.666V8H2.667Z"/><path fill-rule="evenodd" d="M8 10.667A.667.667 0 1 0 8 12a.667.667 0 0 0 0-1.333Zm-2 .666a2 2 0 1 1 4 0 2 2 0 0 1-4 0ZM8.003 0h.07A3.967 3.967 0 0 1 12 4.007a.667.667 0 1 1-1.333-.014 2.634 2.634 0 0 0-2.604-2.66h-.07a2.634 2.634 0 0 0-2.66 2.604v3.396a.667.667 0 1 1-1.333 0V3.927A3.967 3.967 0 0 1 8.003 0Z"/></svg>
